X:1
T:Title
%%score { ( 1 3 ) | ( 2 4 ) }
L:1/8
Q:1/4=78
M:6/8
K:Eb
V:1 treble nm="Grand Piano"
V:3 treble 
V:2 bass 
V:4 bass 
V:1
 GcB EEG | GFG A2 G | [DF][_D=E][=DF] [DB][DF][D_G] | G6 | GcB EEG | [CFB][CFA][B,CG] [A,CF]2 F | %6
w: Fred~H.~Byshe * * * * *||||||
 F=Ac d2 c | [DB]6 | G_G=G [GB]2 [Gc] | c3 D3 | [DAc][DA=B][DAc] [D_Bd]2 [DAc] | c2- [Gc] G2 G | %12
w: ||||||
 [DB][DF][EG] [FA][GB][Dc] | [EB][EG][FA] [GB][Gc][G_d] | [Gd]>cB =A2 c | B6 | G_G=G [GB]2 [Gc] | %17
w: |||||
 c3 D3 | [DAc][DA=B][DAc] [D_Bd]2 [DAc] | c2- [Gc] G2 G | F2 d cAF | E2 c BG[Fe] | %22
w: |||||
 [Ge]>[EGB][B,EG] [Dc]2 [DB] | [B,E]6 |] %24
w: ||
V:2
 [=E,B,E][E,A,E][E,G,E] [E,G,B,][E,G,B,][E,B,E] | [B,D][A,B,D][G,B,D] [F,B,D]2 [E,B,E] | %2
 [B,,B,][B,,B,][B,,B,] [B,,F,][B,,B,][B,,B,] | [E,B,E]6 | %4
 [E,B,E][E,A,E][E,G,E] [E,G,B,][G,B,][E,B,E] | A,,A,,A,, A,,2 [A,CE] | %6
 [F,=A,E][F,CE][F,A,E] [F,A,E]2 [F,A,E] | [B,,B,]6 | [E,B,E][E,=A,E][E,B,E] [E,E]2 [E,E] | %9
 [F,D]2 [F,D] [F,A,B,]2 [F,A,] | B,,B,,B,, B,,2 B,, | [E,E]2 [E,E] [E,B,E]2 [E,B,E] | %12
 [B,,B,][B,,B,][B,,B,] [B,,B,][B,,B,][B,,A,] | [E,G,][E,B,][E,B,] [E,E][E,E][E,B,] | %14
 [D,B,]>[D,=A,D][D,B,D] [D,CD]2 [D,A,D] | D6 | [E,B,E][E,=A,E][E,B,E] [E,E]2 [E,E] | %17
 [F,D]2 [F,D] [F,A,B,]2 [F,A,] | B,,B,,B,, B,,2 B,, | [E,E]2 [E,E] [E,B,E]2 [E,B,E] | %20
 [A,CE]2 [A,CE] [A,CE][A,CE][A,CE] | [G,B,]2 [G,B,E] [G,B,E][E,B,E][C,=A,] | %22
 [B,,B,]>B,,B,, [B,,A,]2 [B,,A,] | [E,G,]6 |] %24
V:3
 x6 | x6 | x6 | x6 | x6 | x6 | x6 | x6 | x6 | A2 A z2 B, | x6 | .G3 z3 | x6 | x6 | x6 | z3 A,3 | %16
 x6 | A2 A z2 B, | x6 | .G3 z3 | x6 | x6 | x6 | x6 |] %24
V:4
 x6 | x6 | x6 | x6 | x6 | x6 | x6 | x6 | x6 | x6 | x6 | x6 | x6 | x6 | x6 | [G,B,]3 F,3 | x6 | x6 | %18
 x6 | x6 | x6 | x6 | x6 | x6 |] %24

